X:125
T:Buffens
R:Buffens
B:Thoinot Arbeau : Orchesographie, 1589
Z:Steve Mansfield March 2001
M:C|
L:1/8
Q:100
K:G % transposed from F
G>A BB c4 | B>A BG A4 | G>A BB c4 | BG AA G4 |
G>A BB c4 | B>A BG A4 | G>A BB c4 | BG AA G4 ||
d2 ed c4 | BA Bc d4 | d2 ed c4 | BG AA G4 |
d2 ed c4 | BA Bc d4 | d2 ed c4 | BG AA G4 ||
